packages/kaspersky-hexa-ui-icons/src/iconsSVGs/24/Color.svg

<svg width="16" height="16" viewBox="0 0 16 16" fill="none" xmlns="http://www.w3.org/2000/svg">
<path d="M8.02479 0H3C1.34315 0 0 1.34315 0 3V17C0 18.6569 1.34315 20 3 20H13C14.6569 20 16 18.6569 16 17V7.98486H11.0093C9.35242 7.98486 8.00927 6.64171 8.00928 4.98485L8.00928 0.176392C8.00928 0.116204 8.0146 0.0572592 8.02479 0Z" fill="black"/>
<path d="M15.3928 5.98486L10.0093 0.562361L10.0093 4.98486C10.0093 5.53714 10.457 5.98486 11.0093 5.98486H15.3928Z" fill="black"/>
</svg>

<svg xmlns="http://www.w3.org/2000/svg" width="16" height="16" fill="none" viewBox="0 0 16 16"><path fill="#000" d="M8.0248 0H3C1.3432 0 0 1.3432 0 3v14c0 1.6569 1.3432 3 3 3h10c1.6569 0 3-1.3431 3-3V7.9849h-4.9907c-1.6569 0-3-1.3432-3-3V.1763Q8.0094.086 8.0248 0"/><path fill="#000" d="M15.3928 5.9849 10.0093.5624v4.4225c0 .5522.4477 1 1 1z"/></svg>
